static/fa/svgs/solid/toilet-paper-slash.svg

<svg xmlns="http://www.w3.org/2000/svg" viewBox="0 0 640 512"><!--! Font Awesome Free 6.1.1 by @fontawesome - https://fontawesome.com License - https://fontawesome.com/license/free (Icons: CC BY 4.0, Fonts: SIL OFL 1.1, Code: MIT License) Copyright 2022 Fonticons, Inc. --><path d="M63.98 191.1v172.1c0 41.12-9.75 62.75-31.13 126.9c-3.5 10.25 4.25 20.1 15.13 20.1l280.9-.0059c13.87 0 25.1-8.75 30.37-21.87c10.08-30.15 19.46-57.6 23.1-93.78L66.51 148.8C64.9 162.7 63.98 177.1 63.98 191.1zM630.8 469.1l-109.8-86.02c48.75-9.144 86.94-91.2 86.94-191.1C607.1 86 564.1 0 511.1 0s-96 86-96 191.1c0 49.25 9.362 94.03 24.62 128l-56.62-44.38l.0049-83.65c0-83.62 23.62-153.5 60.5-191.1H159.1C135.2 0 112.7 18.93 95.72 49.72L38.81 5.109C34.41 1.672 29.19 0 24.03 0c-7.125 0-14.19 3.156-18.91 9.187C-3.061 19.62-1.249 34.72 9.189 42.89l591.1 463.1c10.5 8.203 25.56 6.328 33.69-4.078C643.1 492.4 641.2 477.3 630.8 469.1zM479.1 191.1c0-35.37 14.37-64 32-64c17.62 0 32 28.63 32 64S529.6 255.1 511.1 255.1C494.4 255.1 479.1 227.4 479.1 191.1z"/></svg>

<svg xmlns="http://www.w3.org/2000/svg" viewBox="0 0 640 512"><!--! Font Awesome Free 6.1.1 by @fontawesome - https://fontawesome.com License - https://fontawesome.com/license/free (Icons: CC BY 4.0, Fonts: SIL OFL 1.1, Code: MIT License) Copyright 2022 Fonticons, Inc.--><path d="M63.98 191.1v172.1c0 41.12-9.75 62.75-31.13 126.9-3.5 10.25 4.25 20.1 15.13 20.1l280.9-.006c13.87 0 25.1-8.75 30.37-21.87 10.08-30.15 19.46-57.6 23.1-93.78L66.51 148.8c-1.61 13.9-2.53 28.3-2.53 42.3zm566.82 278L521 383.08c48.75-9.144 86.94-91.2 86.94-191.1C607.1 86 564.1 0 511.1 0s-96 86-96 191.1c0 49.25 9.362 94.03 24.62 128l-56.62-44.38.005-83.65c0-83.62 23.62-153.5 60.5-191.1H159.1c-23.9.03-46.4 18.96-63.38 49.75L38.81 5.109A23.96 23.96 0 0 0 24.03 0C16.905 0 9.84 3.156 5.12 9.187-3.061 19.62-1.249 34.72 9.189 42.89l591.1 463.1c10.5 8.203 25.56 6.328 33.69-4.078C643.1 492.4 641.2 477.3 630.8 469.1zm-151.7-278c0-35.37 14.37-64 32-64 17.62 0 32 28.63 32 64s-13.5 64-32 64c-16.7 0-32-27.7-32-64z"/></svg>
